; generated by PrusaSlicer 2.5.0+win64 on 2023-03-24 at 04:10:25 UTC


;
;

;
;
; 

; external perimeters extrusion width = 0.45mm
; perimeters extrusion width = 0.45mm
; infill extrusion width = 0.45mm
; solid infill extrusion width = 0.45mm
; top infill extrusion width = 0.40mm
; first layer extrusion width = 0.42mm

M73 P0 R76
M201 X2500 Y2500 Z400 E5000 ; sets maximum accelerations, mm/sec^2
M203 X180 Y180 Z12 E80 ; sets maximum feedrates, mm / sec
M204 P1250 R1250 T2500 ; sets acceleration (P, T) and retract acceleration (R), mm/sec^2
M205 X8.00 Y8.00 Z2.00 E10.00 ; sets the jerk limits, mm/sec
M205 S0 T0 ; sets the minimum extruding and travel feed rate, mm/sec
M107
;TYPE:Custom
M862.3 P "MINI" ; printer model check
G90 ; use absolute coordinates
M83 ; extruder relative mode
M104 S170 ; set extruder temp for bed leveling
M140 S85 ; set bed temp
M109 R170 ; wait for bed leveling temp
M190 S85 ; wait for bed temp
M204 T1250 ; set travel acceleration
G28 ; home all without mesh bed level
G29 ; mesh bed leveling 
M204 T2500 ; restore travel acceleration
M104 S230 ; set extruder temp
G92 E0
G1 Y-2 X179 F2400
G1 Z3 F720
M109 S230 ; wait for extruder temp

; intro line
G1 X170 F1000
G1 Z0.2 F720
G1 X110 E8 F900
G1 X40 E10 F700
G92 E0

M221 S95 ; set flow
G21 ; set units to millimeters
G90 ; use absolute coordinates
M83 ; use relative distances for extrusion
M900 K0.2 ; Filament gcode
M107
;LAYER_CHANGE
;Z:0.2
;HEIGHT:0.2
;BEFORE_LAYER_CHANGE
G92 E0.0
;0.2


G1 E-3.2 F2700
G1 Z.2 F720
;AFTER_LAYER_CHANGE
;0.2
G1 Z.4
G1 X59.298 Y75.587 F9000
G1 Z.2 F720
G1 E3.2 F1500
M204 P800
;TYPE:Skirt/Brim
;WIDTH:0.42
G1 F1200
G1 X60.238 Y75.393 E.03008
G1 X79.512 Y75.393 E.60433
G1 X80.24 Y75.507 E.0231
G1 X115.873 Y86.967 E1.17361
G1 X116.997 Y87.74 E.04278
G1 X117.522 Y89.23 E.04953
G1 X117.522 Y98.23 E.28219
G1 X117.131 Y99.537 E.04278
G1 X115.849 Y100.501 E.05028
G1 X102.942 Y104.501 E.42369
G1 X102.238 Y104.607 E.02231
G1 X60.238 Y104.607 E1.31688
G1 X58.931 Y104.215 E.04278
G1 X58.054 Y103.17 E.04278
G1 X57.861 Y102.23 E.03008
G1 X57.861 Y77.77 E.76693
G1 X58.252 Y76.463 E.04278
G1 X59.252 Y75.625 E.0409
M204 P1000
; printing object costcoHolster.stl id:0 copy 0
G1 E-2.24 F2700
;WIPE_START
G1 F7200
G1 X60.238 Y75.393 E-.36078
G1 X61.785 Y75.393 E-.55122
;WIPE_END
G1 E-.048 F2700
G1 Z.4 F720
G1 X101.996 Y93.415 F9000
G1 Z.2 F720
G1 E3.2 F1500
M204 P800
;TYPE:Perimeter
;WIDTH:0.419999
G1 F1200
G1 X101.896 Y93.612 E.00694
G1 X101.903 Y93.878 E.00834
G1 X102.049 Y94.13 E.00914
G1 X103.77 Y95.851 E.07633
G1 X103.917 Y95.957 E.00568
G1 X104.17 Y96.017 E.00815
G1 X113.093 Y96.017 E.27975
G1 X113.093 Y97.443 E.04471
G1 X104.17 Y97.443 E.27975
G1 X103.917 Y97.503 E.00815
G1 X103.77 Y97.609 E.00568
G1 X102.141 Y99.238 E.07226
G1 X102.011 Y99.444 E.00763
G1 X101.722 Y99.525 E.00939
G1 X101.528 Y99.724 E.00873
G1 X101.451 Y100.009 E.00924
G1 X101.451 Y101.443 E.04497
G1 X61.025 Y101.443 E1.26752
G1 X61.025 Y78.557 E.71757
G1 X78.725 Y78.557 E.55497
G1 X78.727 Y85.999 E.23333
G1 X78.822 Y86.268 E.00894
G1 X79.032 Y86.455 E.00883
G1 X79.291 Y86.517 E.00833
G1 X101.478 Y86.517 E.69568
G1 X101.62 Y86.855 E.0115
G1 X101.975 Y87 E.01201
G1 X101.975 Y87.7 E.02193
G1 X102.02 Y88.043 E.01086
G1 X102.141 Y88.222 E.00675
G1 X103.77 Y89.851 E.07226
G1 X103.917 Y89.957 E.00568
G1 X104.17 Y90.017 E.00815
G1 X113.093 Y90.017 E.27975
G1 X113.093 Y91.443 E.04471
G1 X104.17 Y91.443 E.27975
G1 X103.917 Y91.503 E.00815
G1 X103.77 Y91.609 E.00568
G1 X102.023 Y93.361 E.07759
M204 P1000
G1 X102.316 Y93.597 F9000
M204 P800
;TYPE:External perimeter
G1 F1200
G1 X102.261 Y93.714 E.00407
G1 X102.316 Y93.863 E.00497
G1 X104.037 Y95.585 E.07633
G1 X104.17 Y95.64 E.00452
G1 X113.47 Y95.64 E.29157
G1 X113.47 Y97.82 E.06835
G1 X104.17 Y97.82 E.29157
G1 X104.037 Y97.875 E.00452
G1 X102.602 Y99.31 E.06364
G1 X102.363 Y99.575 E.01118
G1 X102.352 Y99.82 E.00768
G1 X102.016 Y99.82 E.01052
G1 X101.903 Y99.858 E.00376
G1 X101.828 Y100.009 E.00526
G1 X101.828 Y101.82 E.0568
G1 X60.648 Y101.82 E1.29117
G1 X60.648 Y78.18 E.74121
G1 X79.102 Y78.18 E.57862
G1 X79.102 Y85.951 E.24367
G1 X79.153 Y86.08 E.00433
G1 X79.291 Y86.14 E.00471
G1 X101.828 Y86.14 E.70664
G1 X101.828 Y86.451 E.00977
G1 X101.884 Y86.586 E.00458
G1 X102.016 Y86.64 E.00447
G1 X102.352 Y86.64 E.01052
G1 X102.352 Y87.822 E.03705
G1 X102.407 Y87.955 E.00452
G1 X104.037 Y89.585 E.07226
G1 X104.17 Y89.64 E.00452
G1 X113.47 Y89.64 E.29157
G1 X113.47 Y91.82 E.06835
G1 X104.17 Y91.82 E.29157
G1 X104.037 Y91.875 E.00452
G1 X102.358 Y93.554 E.07445
M204 P1000
G1 X102.186 Y93.592 F9000
G1 E-2.24 F2700
;WIPE_START
G1 F7200
G1 X102.261 Y93.714 E-.06669
G1 X102.316 Y93.863 E-.05651
G1 X103.881 Y95.429 E-.7888
;WIPE_END
G1 E-.048 F2700
G1 Z.4 F720
G1 X112.331 Y96.13 F9000
G1 Z.2 F720
G1 E3.2 F1500
M204 P800
;TYPE:Solid infill
;WIDTH:0.42114
G1 F1200
G1 X112.81 Y96.609 E.02129
G1 X112.81 Y97.144 E.01682
G1 X111.966 Y96.3 E.03753
G1 X111.431 Y96.3 E.01682
G1 X112.291 Y97.16 E.03826
G1 X111.756 Y97.16 E.01682
G1 X110.896 Y96.3 E.03826
G1 X110.361 Y96.3 E.01682
G1 X111.221 Y97.16 E.03826
G1 X110.687 Y97.16 E.01682
G1 X109.826 Y96.3 E.03826
G1 X109.291 Y96.3 E.01682
G1 X110.152 Y97.16 E.03826
G1 X109.617 Y97.16 E.01682
G1 X108.757 Y96.3 E.03826
G1 X108.222 Y96.3 E.01682
G1 X109.082 Y97.16 E.03826
G1 X108.547 Y97.16 E.01682
G1 X107.687 Y96.3 E.03826
G1 X107.152 Y96.3 E.01682
G1 X108.012 Y97.16 E.03826
G1 X107.477 Y97.16 E.01682
G1 X106.617 Y96.3 E.03826
G1 X106.082 Y96.3 E.01682
G1 X106.942 Y97.16 E.03826
G1 X106.408 Y97.16 E.01682
G1 X105.547 Y96.3 E.03826
G1 X105.012 Y96.3 E.01682
G1 X105.873 Y97.16 E.03826
G1 X105.338 Y97.16 E.01682
G1 X104.308 Y96.13 E.04581
M204 P1000
G1 E-2.24 F2700
;WIPE_START
G1 F7200
G1 X105.338 Y97.16 E-.51889
G1 X105.873 Y97.16 E-.19055
G1 X105.471 Y96.758 E-.20255
;WIPE_END
G1 E-.048 F2700
G1 Z.4 F720
G1 X101.862 Y87.801 F9000
G1 Z.2 F720
G1 E3.2 F1500
M204 P800
G1 F1200
G1 X100.692 Y86.63 E.05205
M204 P1000
G1 E-2.24 F2700
;WIPE_START
G1 F7200
G1 X101.862 Y87.801 E-.58964
;WIPE_END
G1 E-.37036 F2700
G1 Z.4 F720
G1 X112.215 Y90.13 F9000
G1 Z.2 F720
G1 E3.2 F1500
M204 P800
G1 F1200
G1 X112.81 Y90.725 E.02646
G1 X112.81 Y91.16 E.01368
G1 X112.71 Y91.16 E.00314
G1 X111.85 Y90.3 E.03826
G1 X111.315 Y90.3 E.01682
G1 X112.175 Y91.16 E.03826
G1 X111.64 Y91.16 E.01682
G1 X110.78 Y90.3 E.03826
G1 X110.245 Y90.3 E.01682
G1 X111.105 Y91.16 E.03826
G1 X110.57 Y91.16 E.01682
G1 X109.71 Y90.3 E.03826
G1 X109.175 Y90.3 E.01682
G1 X110.035 Y91.16 E.03826
G1 X109.501 Y91.16 E.01682
G1 X108.64 Y90.3 E.03826
G1 X108.105 Y90.3 E.01682
M73 P1 R76
G1 X108.966 Y91.16 E.03826
G1 X108.431 Y91.16 E.01682
G1 X107.571 Y90.3 E.03826
G1 X107.036 Y90.3 E.01682
G1 X107.896 Y91.16 E.03826
G1 X107.361 Y91.16 E.01682
G1 X106.501 Y90.3 E.03826
G1 X105.966 Y90.3 E.01682
G1 X106.826 Y91.16 E.03826
G1 X106.291 Y91.16 E.01682
G1 X105.431 Y90.3 E.03826
G1 X104.896 Y90.3 E.01682
G1 X105.756 Y91.16 E.03826
G1 X105.221 Y91.16 E.01682
G1 X104.192 Y90.13 E.04581
M204 P1000
G1 E-2.24 F2700
;WIPE_START
G1 F7200
G1 X105.221 Y91.16 E-.51889
G1 X105.756 Y91.16 E-.19055
G1 X105.354 Y90.758 E-.20256
;WIPE_END
G1 E-.048 F2700
G1 Z.4 F720
G1 X104.856 Y91.33 F9000
G1 Z.2 F720
G1 E3.2 F1500
M204 P800
G1 F1200
G1 X100.326 Y86.8 E.20147
G1 X99.791 Y86.8 E.01682
G1 X104.153 Y91.162 E.19399
G1 X103.793 Y91.247 E.01163
G1 X103.741 Y91.284 E.00203
G1 X99.257 Y86.8 E.19945
G1 X98.722 Y86.8 E.01682
G1 X103.451 Y91.529 E.21032
G1 X103.183 Y91.796 E.01189
G1 X98.187 Y86.8 E.22222
G1 X97.652 Y86.8 E.01682
G1 X102.916 Y92.064 E.23412
G1 X102.649 Y92.331 E.01189
G1 X97.117 Y86.8 E.24602
G1 X96.582 Y86.8 E.01682
G1 X102.381 Y92.599 E.25792
G1 X102.114 Y92.866 E.01189
G1 X96.047 Y86.8 E.26982
G1 X95.512 Y86.8 E.01682
G1 X101.847 Y93.134 E.28172
G1 X101.709 Y93.314 E.00713
G1 X101.644 Y93.466 E.00521
G1 X94.978 Y86.8 E.2965
G1 X94.443 Y86.8 E.01682
G1 X104.803 Y97.16 E.46078
G1 X104.268 Y97.16 E.01682
M73 P1 R75
G1 X93.908 Y86.8 E.46078
G1 X93.373 Y86.8 E.01682
G1 X103.815 Y97.242 E.4644
G1 X103.576 Y97.403 E.00907
G1 X103.509 Y97.47 E.00299
G1 X92.838 Y86.8 E.47458
G1 X92.303 Y86.8 E.01682
G1 X103.241 Y97.738 E.48648
G1 X102.974 Y98.005 E.01189
G1 X91.768 Y86.8 E.49837
G1 X91.233 Y86.8 E.01682
G1 X102.706 Y98.273 E.51027
G1 X102.439 Y98.54 E.01189
G1 X90.698 Y86.8 E.52216
G1 X90.164 Y86.8 E.01682
G1 X102.171 Y98.808 E.53406
G1 X101.91 Y99.081 E.0119
G1 X89.629 Y86.8 E.54621
G1 X89.094 Y86.8 E.01682
G1 X101.577 Y99.283 E.55518
G1 X101.417 Y99.407 E.00635
G1 X101.308 Y99.549 E.00564
G1 X88.559 Y86.8 E.56701
G1 X88.024 Y86.8 E.01682
G1 X101.176 Y99.952 E.58493
G1 X101.168 Y100.479 E.01658
G1 X87.489 Y86.8 E.60838
G1 X86.954 Y86.8 E.01682
G1 X101.168 Y101.014 E.63217
G1 X101.168 Y101.16 E.00461
G1 X100.78 Y101.16 E.01221
G1 X86.419 Y86.8 E.63868
G1 X85.884 Y86.8 E.01682
G1 X100.245 Y101.16 E.63868
G1 X99.71 Y101.16 E.01682
G1 X85.35 Y86.8 E.63868
G1 X84.815 Y86.8 E.01682
G1 X99.175 Y101.16 E.63868
G1 X98.64 Y101.16 E.01682
G1 X84.28 Y86.8 E.63868
G1 X83.745 Y86.8 E.01682
G1 X98.105 Y101.16 E.63868
G1 X97.57 Y101.16 E.01682
G1 X83.21 Y86.8 E.63868
G1 X82.675 Y86.8 E.01682
G1 X97.035 Y101.16 E.63868
G1 X96.501 Y101.16 E.01682
G1 X82.14 Y86.8 E.63868
G1 X81.605 Y86.8 E.01682
G1 X95.966 Y101.16 E.63868
G1 X95.431 Y101.16 E.01682
G1 X81.071 Y86.8 E.63868
G1 X80.536 Y86.8 E.01682
G1 X94.896 Y101.16 E.63868
G1 X94.361 Y101.16 E.01682
G1 X79.831 Y86.63 E.64623
M204 P1000
G1 E-2.24 F2700
;WIPE_START
G1 F7200
G1 X81.641 Y88.44 E-.912
;WIPE_END
G1 E-.048 F2700
G1 Z.4 F720
G1 X77.755 Y78.67 F9000
G1 Z.2 F720
G1 E3.2 F1500
M204 P800
G1 F1200
G1 X78.442 Y79.358 E.03057
G1 X78.442 Y79.892 E.01682
G1 X77.39 Y78.84 E.04682
G1 X76.855 Y78.84 E.01682
G1 X78.442 Y80.427 E.07061
G1 X78.442 Y80.962 E.01682
G1 X76.32 Y78.84 E.09439
G1 X75.785 Y78.84 E.01682
G1 X78.442 Y81.497 E.11818
G1 X78.442 Y82.032 E.01682
G1 X75.25 Y78.84 E.14197
G1 X74.715 Y78.84 E.01682
G1 X78.442 Y82.567 E.16576
G1 X78.442 Y83.102 E.01682
G1 X74.18 Y78.84 E.18955
G1 X73.645 Y78.84 E.01682
G1 X78.442 Y83.637 E.21334
G1 X78.442 Y84.172 E.01682
G1 X73.111 Y78.84 E.23713
G1 X72.576 Y78.84 E.01682
G1 X78.442 Y84.706 E.26092
G1 X78.442 Y85.241 E.01682
G1 X72.041 Y78.84 E.28471
G1 X71.506 Y78.84 E.01682
G1 X78.442 Y85.776 E.3085
G1 X78.442 Y85.959 E.00576
G1 X78.488 Y86.229 E.00861
G1 X78.551 Y86.367 E.00477
G1 X78.67 Y86.531 E.00636
G1 X78.835 Y86.668 E.00675
G1 X78.974 Y86.739 E.00493
G1 X79.128 Y86.785 E.00504
G1 X79.466 Y86.8 E.01063
G1 X93.826 Y101.16 E.63868
G1 X93.291 Y101.16 E.01682
G1 X70.971 Y78.84 E.99271
G1 X70.436 Y78.84 E.01682
G1 X92.756 Y101.16 E.99271
G1 X92.221 Y101.16 E.01682
G1 X69.901 Y78.84 E.99271
G1 X69.366 Y78.84 E.01682
G1 X91.687 Y101.16 E.99271
G1 X91.152 Y101.16 E.01682
G1 X68.831 Y78.84 E.99271
G1 X68.297 Y78.84 E.01682
M73 P2 R75
G1 X90.617 Y101.16 E.99271
G1 X90.082 Y101.16 E.01682
G1 X67.762 Y78.84 E.99271
G1 X67.227 Y78.84 E.01682
G1 X89.547 Y101.16 E.99271
G1 X89.012 Y101.16 E.01682
G1 X66.692 Y78.84 E.99271
G1 X66.157 Y78.84 E.01682
G1 X88.477 Y101.16 E.99271
G1 X87.942 Y101.16 E.01682
G1 X65.622 Y78.84 E.99271
G1 X65.087 Y78.84 E.01682
G1 X87.408 Y101.16 E.99271
G1 X86.873 Y101.16 E.01682
G1 X64.552 Y78.84 E.99271
G1 X64.018 Y78.84 E.01682
G1 X86.338 Y101.16 E.99271
G1 X85.803 Y101.16 E.01682
G1 X63.483 Y78.84 E.99271
G1 X62.948 Y78.84 E.01682
G1 X85.268 Y101.16 E.99271
G1 X84.733 Y101.16 E.01682
G1 X62.413 Y78.84 E.99271
G1 X61.878 Y78.84 E.01682
G1 X84.198 Y101.16 E.99271
G1 X83.663 Y101.16 E.01682
M73 P2 R74
G1 X61.343 Y78.84 E.99271
G1 X61.308 Y78.84 E.00111
G1 X61.308 Y79.339 E.01571
G1 X83.128 Y101.16 E.97049
G1 X82.594 Y101.16 E.01682
G1 X61.308 Y79.874 E.9467
G1 X61.308 Y80.409 E.01682
G1 X82.059 Y101.16 E.92291
G1 X81.524 Y101.16 E.01682
G1 X61.308 Y80.944 E.89912
G1 X61.308 Y81.479 E.01682
G1 X80.989 Y101.16 E.87533
G1 X80.454 Y101.16 E.01682
G1 X61.308 Y82.014 E.85154
G1 X61.308 Y82.549 E.01682
G1 X79.919 Y101.16 E.82776
G1 X79.384 Y101.16 E.01682
G1 X61.308 Y83.084 E.80397
G1 X61.308 Y83.619 E.01682
G1 X78.849 Y101.16 E.78018
G1 X78.315 Y101.16 E.01682
G1 X61.308 Y84.153 E.75639
G1 X61.308 Y84.688 E.01682
G1 X77.78 Y101.16 E.7326
G1 X77.245 Y101.16 E.01682
G1 X61.308 Y85.223 E.70881
G1 X61.308 Y85.758 E.01682
G1 X76.71 Y101.16 E.68502
G1 X76.175 Y101.16 E.01682
G1 X61.308 Y86.293 E.66123
G1 X61.308 Y86.828 E.01682
G1 X75.64 Y101.16 E.63744
G1 X75.105 Y101.16 E.01682
G1 X61.308 Y87.363 E.61365
G1 X61.308 Y87.898 E.01682
G1 X74.57 Y101.16 E.58986
G1 X74.035 Y101.16 E.01682
G1 X61.308 Y88.432 E.56607
G1 X61.308 Y88.967 E.01682
G1 X73.501 Y101.16 E.54228
G1 X72.966 Y101.16 E.01682
M73 P3 R74
G1 X61.308 Y89.502 E.51849
G1 X61.308 Y90.037 E.01682
G1 X72.431 Y101.16 E.4947
G1 X71.896 Y101.16 E.01682
G1 X61.308 Y90.572 E.47092
G1 X61.308 Y91.107 E.01682
G1 X71.361 Y101.16 E.44713
G1 X70.826 Y101.16 E.01682
G1 X61.308 Y91.642 E.42334
G1 X61.308 Y92.177 E.01682
G1 X70.291 Y101.16 E.39955
G1 X69.756 Y101.16 E.01682
G1 X61.308 Y92.712 E.37576
G1 X61.308 Y93.246 E.01682
G1 X69.221 Y101.16 E.35197
G1 X68.687 Y101.16 E.01682
G1 X61.308 Y93.781 E.32818
G1 X61.308 Y94.316 E.01682
G1 X68.152 Y101.16 E.30439
G1 X67.617 Y101.16 E.01682
G1 X61.308 Y94.851 E.2806
G1 X61.308 Y95.386 E.01682
G1 X67.082 Y101.16 E.25681
G1 X66.547 Y101.16 E.01682
G1 X61.308 Y95.921 E.23302
G1 X61.308 Y96.456 E.01682
G1 X66.012 Y101.16 E.20923
G1 X65.477 Y101.16 E.01682
G1 X61.308 Y96.991 E.18544
G1 X61.308 Y97.525 E.01682
G1 X64.942 Y101.16 E.16165
G1 X64.408 Y101.16 E.01682
G1 X61.308 Y98.06 E.13786
G1 X61.308 Y98.595 E.01682
G1 X63.873 Y101.16 E.11407
G1 X63.338 Y101.16 E.01682
G1 X61.308 Y99.13 E.09029
G1 X61.308 Y99.665 E.01682
G1 X62.803 Y101.16 E.0665
G1 X62.268 Y101.16 E.01682
G1 X61.308 Y100.2 E.04271
G1 X61.308 Y100.735 E.01682
G1 X61.903 Y101.33 E.02646
M204 P1000
; stop printing object costcoHolster.stl id:0 copy 0
;LAYER_CHANGE
;Z:0.4
;HEIGHT:0.2
;BEFORE_LAYER_CHANGE
G92 E0.0
;0.4


G1 E-2.24 F2700
;WIPE_START
G1 F7200
G1 X61.308 Y100.735 E-.29978
G1 X61.308 Y100.2 E-.19055
G1 X62.145 Y101.037 E-.42167
;WIPE_END
G1 E-.048 F2700
G1 Z.4 F720
;AFTER_LAYER_CHANGE
;0.4
M104 S240 ; set temperature
M140 S90 ; set bed temperature
G1 Z.6
G1 X62.145 Y104.607 F9000
G1 Z.4 F720
G1 E3.2 F1500
;TYPE:Skirt/Brim
;WIDTH:0.42
G1 F2400
G1 X60.238 Y104.607 E.05979
G1 X58.931 Y104.215 E.04278
G1 X58.054 Y103.17 E.04278
G1 X57.861 Y102.23 E.03008
G1 X57.861 Y77.77 E.76693
G1 X58.252 Y76.463 E.04278
G1 X59.298 Y75.587 E.04278
G1 X60.238 Y75.393 E.03008
G1 X79.512 Y75.393 E.60433
G1 X80.24 Y75.507 E.0231
G1 X115.873 Y86.967 E1.17361
G1 X116.997 Y87.74 E.04278
G1 X117.522 Y89.23 E.04953
G1 X117.522 Y98.23 E.28219
G1 X117.131 Y99.537 E.04278
G1 X115.849 Y100.501 E.05028
G1 X102.942 Y104.501 E.42369
G1 X102.238 Y104.607 E.02231
G1 X62.205 Y104.607 E1.25521
; printing object costcoHolster.stl id:0 copy 0
G1 E-2.24 F2700
;WIPE_START
G1 F7200
G1 X60.238 Y104.607 E-.70068
G1 X59.67 Y104.437 E-.21132
;WIPE_END
G1 E-.048 F2700
G1 Z.6 F720
G1 X102.128 Y93.713 F9000
G1 Z.4 F720
G1 E3.2 F1500
M204 P800
;TYPE:Perimeter
;WIDTH:0.449999
G1 F2400
G1 X102.168 Y93.964 E.00861
G1 X102.3 Y94.162 E.00805
G1 X103.821 Y95.683 E.07283
G1 X103.98 Y95.798 E.00662
G1 X104.253 Y95.862 E.0095
G1 X113.972 Y95.862 E.32898
G1 X113.972 Y97.598 E.05876
G1 X104.253 Y97.598 E.32898
G1 X103.98 Y97.662 E.0095
G1 X103.821 Y97.777 E.00662
G1 X102.309 Y99.289 E.07241
G1 X102.263 Y99.34 E.00231
G1 X102.151 Y99.612 E.00997
G1 X101.9 Y99.686 E.00885
G1 X101.692 Y99.895 E.00996
G1 X101.606 Y100.209 E.01101
G1 X101.606 Y101.598 E.04703
G1 X60.87 Y101.598 E1.37886
G1 X60.87 Y78.402 E.78515
G1 X78.88 Y78.402 E.60962
G1 X78.88 Y85.751 E.24877
G1 X78.89 Y85.861 E.00371
G1 X78.986 Y86.095 E.00858
G1 X79.213 Y86.295 E.01025
G1 X79.491 Y86.362 E.00966
G1 X101.652 Y86.362 E.75014
G1 X101.789 Y86.687 E.01194
G1 X102.13 Y86.827 E.01247
G1 X102.13 Y87.5 E.02278
G1 X102.177 Y87.974 E.01614
G1 X102.308 Y88.169 E.00795
G1 X103.821 Y89.683 E.07247
G1 X103.98 Y89.798 E.00662
G1 X104.253 Y89.862 E.0095
G1 X113.972 Y89.862 E.32898
G1 X113.972 Y91.598 E.05876
