; generated by PrusaSlicer 2.5.0+win64 on 2023-03-24 at 15:41:49 UTC


;
;

;
;
; 

; external perimeters extrusion width = 0.45mm
; perimeters extrusion width = 0.45mm
; infill extrusion width = 0.45mm
; solid infill extrusion width = 0.45mm
; top infill extrusion width = 0.40mm
; first layer extrusion width = 0.42mm

M73 P0 R100
M201 X2500 Y2500 Z400 E5000 ; sets maximum accelerations, mm/sec^2
M203 X180 Y180 Z12 E80 ; sets maximum feedrates, mm / sec
M204 P1250 R1250 T2500 ; sets acceleration (P, T) and retract acceleration (R), mm/sec^2
M205 X8.00 Y8.00 Z2.00 E10.00 ; sets the jerk limits, mm/sec
M205 S0 T0 ; sets the minimum extruding and travel feed rate, mm/sec
M107
;TYPE:Custom
M862.3 P "MINI" ; printer model check
G90 ; use absolute coordinates
M83 ; extruder relative mode
M104 S170 ; set extruder temp for bed leveling
M140 S85 ; set bed temp
M109 R170 ; wait for bed leveling temp
M190 S85 ; wait for bed temp
M204 T1250 ; set travel acceleration
G28 ; home all without mesh bed level
G29 ; mesh bed leveling 
M204 T2500 ; restore travel acceleration
M104 S230 ; set extruder temp
G92 E0
G1 Y-2 X179 F2400
G1 Z3 F720
M109 S230 ; wait for extruder temp

; intro line
G1 X170 F1000
G1 Z0.2 F720
G1 X110 E8 F900
G1 X40 E10 F700
G92 E0

M221 S95 ; set flow
G21 ; set units to millimeters
G90 ; use absolute coordinates
M83 ; use relative distances for extrusion
M900 K0.2 ; Filament gcode
M107
;LAYER_CHANGE
;Z:0.2
;HEIGHT:0.2
;BEFORE_LAYER_CHANGE
G92 E0.0
;0.2


G1 E-3.2 F2700
G1 Z.2 F720
;AFTER_LAYER_CHANGE
;0.2
G1 Z.4
G1 X59.298 Y74.587 F9000
G1 Z.2 F720
G1 E3.2 F1500
M204 P800
;TYPE:Skirt/Brim
;WIDTH:0.42
G1 F1200
G1 X60.238 Y74.393 E.03008
G1 X105.238 Y74.393 E1.41094
G1 X106.545 Y74.785 E.04278
G1 X107.11 Y75.305 E.02409
G1 X117.017 Y87.965 E.50405
G1 X117.522 Y89.43 E.04859
G1 X117.522 Y98.03 E.26965
G1 X117.131 Y99.337 E.04278
G1 X116.034 Y100.235 E.04445
G1 X103.126 Y105.435 E.43631
G1 X102.238 Y105.607 E.02837
G1 X60.238 Y105.607 E1.31688
G1 X58.931 Y105.215 E.04278
G1 X58.054 Y104.17 E.04278
G1 X57.861 Y103.23 E.03008
G1 X57.861 Y76.77 E.82963
G1 X58.252 Y75.463 E.04278
G1 X59.252 Y74.625 E.0409
M204 P1000
; printing object costcoHolster.stl id:0 copy 0
G1 E-2.24 F2700
;WIPE_START
G1 F7200
G1 X60.238 Y74.393 E-.36078
G1 X61.785 Y74.393 E-.55122
;WIPE_END
G1 E-.048 F2700
G1 Z.4 F720
G1 X103.796 Y91.313 F9000
G1 Z.2 F720
G1 E3.2 F1500
M204 P800
;TYPE:Perimeter
;WIDTH:0.419999
G1 F1200
G1 X103.741 Y91.329 E.00179
G1 X103.599 Y91.455 E.00595
G1 X103.516 Y91.598 E.00521
G1 X103.475 Y91.904 E.00968
G1 X102.141 Y93.238 E.05917
G1 X101.959 Y93.447 E.00869
G1 X101.887 Y93.662 E.00709
G1 X101.91 Y93.902 E.00754
G1 X102.049 Y94.13 E.00838
G1 X103.475 Y95.556 E.06323
G1 X103.475 Y95.651 E.00299
G1 X103.542 Y95.918 E.00862
G1 X103.741 Y96.131 E.00916
G1 X104.041 Y96.217 E.00976
G1 X113.093 Y96.217 E.28382
G1 X113.093 Y97.243 E.03216
G1 X104.041 Y97.243 E.28382
G1 X103.741 Y97.329 E.00976
G1 X103.599 Y97.455 E.00595
G1 X103.516 Y97.598 E.00521
G1 X103.475 Y97.904 E.00968
G1 X102.141 Y99.238 E.05917
G1 X102.011 Y99.444 E.00763
G1 X101.825 Y99.476 E.0059
G1 X101.675 Y99.558 E.00535
G1 X101.502 Y99.774 E.0087
G1 X101.451 Y100.009 E.00752
G1 X101.451 Y102.443 E.07633
G1 X61.025 Y102.443 E1.26752
G1 X61.025 Y77.557 E.78028
G1 X104.451 Y77.557 E1.36158
G1 X104.451 Y78.95 E.04369
G1 X92.291 Y78.95 E.38127
G1 X91.951 Y79.064 E.01122
G1 X91.769 Y79.298 E.00933
G1 X91.725 Y79.516 E.00696
G1 X91.725 Y85.951 E.20178
G1 X91.727 Y86.003 E.00161
G1 X91.822 Y86.268 E.00883
G1 X92.032 Y86.455 E.00883
G1 X92.291 Y86.517 E.00833
G1 X101.478 Y86.517 E.28807
G1 X101.62 Y86.855 E.0115
G1 X101.975 Y87 E.01201
G1 X101.975 Y87.7 E.02193
G1 X102.02 Y88.043 E.01086
G1 X102.141 Y88.222 E.00675
G1 X103.475 Y89.556 E.05917
G1 X103.475 Y89.651 E.00299
G1 X103.542 Y89.918 E.00862
G1 X103.741 Y90.131 E.00916
G1 X104.041 Y90.217 E.00976
G1 X113.093 Y90.217 E.28382
G1 X113.093 Y91.243 E.03216
G1 X104.041 Y91.243 E.28382
G1 X103.854 Y91.296 E.00609
M204 P1000
G1 X103.941 Y91.649 F9000
M204 P800
;TYPE:External perimeter
G1 F1200
G1 X103.874 Y91.72 E.00305
G1 X103.852 Y92.06 E.0107
G1 X102.316 Y93.597 E.06813
G1 X102.26 Y93.728 E.00447
G1 X102.316 Y93.863 E.00458
G1 X103.852 Y95.4 E.06813
G1 X103.852 Y95.651 E.00789
G1 X103.894 Y95.769 E.00392
G1 X104.041 Y95.84 E.00511
G1 X113.47 Y95.84 E.29564
G1 X113.47 Y97.62 E.05581
G1 X104.041 Y97.62 E.29564
G1 X103.941 Y97.649 E.00325
G1 X103.874 Y97.72 E.00305
G1 X103.852 Y98.06 E.0107
G1 X102.363 Y99.575 E.06661
G1 X102.352 Y99.82 E.00768
G1 X102.016 Y99.82 E.01052
G1 X101.885 Y99.873 E.00443
G1 X101.828 Y100.009 E.00462
G1 X101.828 Y102.82 E.08815
G1 X60.648 Y102.82 E1.29117
G1 X60.648 Y77.18 E.80392
G1 X104.828 Y77.18 E1.38523
G1 X104.828 Y79.327 E.06733
G1 X92.291 Y79.327 E.3931
G1 X92.178 Y79.365 E.00374
G1 X92.102 Y79.516 E.00529
G1 X92.102 Y85.951 E.20178
G1 X92.153 Y86.08 E.00433
G1 X92.291 Y86.14 E.00471
G1 X101.828 Y86.14 E.29903
G1 X101.828 Y86.451 E.00977
G1 X101.884 Y86.586 E.00458
G1 X102.016 Y86.64 E.00447
G1 X102.352 Y86.64 E.01052
G1 X102.352 Y87.822 E.03705
G1 X102.407 Y87.955 E.00452
G1 X103.852 Y89.4 E.06406
G1 X103.852 Y89.651 E.00789
G1 X103.894 Y89.769 E.00392
G1 X104.041 Y89.84 E.00511
G1 X113.47 Y89.84 E.29564
G1 X113.47 Y91.62 E.05581
G1 X103.999 Y91.632 E.29696
M204 P1000
G1 X103.853 Y91.607 F9000
G1 E-2.24 F2700
;WIPE_START
G1 F7200
G1 X103.874 Y91.72 E-.05415
G1 X103.852 Y92.06 E-.12158
G1 X102.391 Y93.522 E-.73627
;WIPE_END
G1 E-.048 F2700
G1 Z.4 F720
G1 X112.98 Y96.705 F9000
G1 Z.2 F720
G1 E3.2 F1500
M204 P800
;TYPE:Solid infill
;WIDTH:0.421164
G1 F1200
G1 X112.774 Y96.5 E.00913
G1 X112.239 Y96.5 E.01682
G1 X112.699 Y96.96 E.02047
G1 X112.165 Y96.96 E.01682
G1 X111.704 Y96.5 E.02047
G1 X111.169 Y96.5 E.01682
G1 X111.63 Y96.96 E.02047
G1 X111.095 Y96.96 E.01682
G1 X110.634 Y96.5 E.02047
G1 X110.1 Y96.5 E.01682
G1 X110.56 Y96.96 E.02047
G1 X110.025 Y96.96 E.01682
G1 X109.565 Y96.5 E.02047
G1 X109.03 Y96.5 E.01682
G1 X109.49 Y96.96 E.02047
G1 X108.955 Y96.96 E.01682
G1 X108.495 Y96.5 E.02047
G1 X107.96 Y96.5 E.01682
G1 X108.42 Y96.96 E.02047
G1 X107.885 Y96.96 E.01682
G1 X107.425 Y96.5 E.02047
G1 X106.89 Y96.5 E.01682
G1 X107.35 Y96.96 E.02047
G1 X106.815 Y96.96 E.01682
G1 X106.355 Y96.5 E.02047
G1 X105.82 Y96.5 E.01682
G1 X106.28 Y96.96 E.02047
G1 X105.746 Y96.96 E.01682
G1 X105.285 Y96.5 E.02047
G1 X104.75 Y96.5 E.01682
G1 X105.38 Y97.13 E.02802
M204 P1000
G1 E-2.24 F2700
;WIPE_START
G1 F7200
G1 X104.75 Y96.5 E-.31737
G1 X105.285 Y96.5 E-.19056
G1 X105.746 Y96.96 E-.23188
G1 X106.229 Y96.96 E-.17219
;WIPE_END
G1 E-.048 F2700
G1 Z.4 F720
G1 X112.488 Y90.33 F9000
G1 Z.2 F720
G1 E3.2 F1500
M204 P800
G1 F1200
G1 X112.81 Y90.651 E.0143
G1 X112.81 Y90.96 E.00971
G1 X112.584 Y90.96 E.00711
G1 X112.123 Y90.5 E.02049
G1 X111.588 Y90.499 E.01683
G1 X112.049 Y90.96 E.0205
G1 X111.514 Y90.961 E.01682
G1 X111.053 Y90.499 E.02052
G1 X110.518 Y90.499 E.01683
G1 X110.979 Y90.961 E.02053
G1 X110.445 Y90.961 E.01682
G1 X109.983 Y90.499 E.02055
G1 X109.448 Y90.499 E.01683
G1 X109.91 Y90.961 E.02056
G1 X109.375 Y90.961 E.01682
G1 X108.913 Y90.499 E.02058
G1 X108.377 Y90.498 E.01683
G1 X108.84 Y90.961 E.02059
G1 X108.306 Y90.962 E.01682
G1 X107.842 Y90.498 E.02061
G1 X107.307 Y90.498 E.01683
G1 X107.771 Y90.962 E.02062
G1 X107.236 Y90.962 E.01682
G1 X106.772 Y90.498 E.02064
G1 X106.237 Y90.498 E.01683
G1 X106.701 Y90.962 E.02065
G1 X106.167 Y90.962 E.01682
G1 X105.702 Y90.498 E.02067
G1 X105.167 Y90.497 E.01683
G1 X105.632 Y90.962 E.02069
G1 X105.097 Y90.963 E.01682
G1 X104.462 Y90.327 E.02825
M204 P1000
G1 E-2.24 F2700
;WIPE_START
G1 F7200
G1 X105.097 Y90.963 E-.32
G1 X105.632 Y90.962 E-.1905
G1 X105.167 Y90.497 E-.23431
G1 X105.636 Y90.498 E-.16719
;WIPE_END
G1 E-.048 F2700
G1 Z.4 F720
G1 X104.338 Y78.435 F9000
G1 Z.2 F720
G1 E3.2 F1500
M204 P800
G1 F1200
G1 X103.743 Y77.84 E.02647
G1 X103.208 Y77.84 E.01682
G1 X104.035 Y78.668 E.03682
G1 X103.501 Y78.668 E.01682
G1 X102.673 Y77.84 E.03682
G1 X102.138 Y77.84 E.01682
G1 X102.966 Y78.668 E.03682
G1 X102.431 Y78.668 E.01682
G1 X101.603 Y77.84 E.03682
G1 X101.068 Y77.84 E.01682
G1 X101.896 Y78.668 E.03682
G1 X101.361 Y78.668 E.01682
G1 X100.533 Y77.84 E.03682
G1 X99.998 Y77.84 E.01682
G1 X100.826 Y78.668 E.03682
G1 X100.291 Y78.668 E.01682
G1 X99.463 Y77.84 E.03682
G1 X98.928 Y77.84 E.01682
G1 X99.756 Y78.668 E.03682
G1 X99.221 Y78.668 E.01682
G1 X98.393 Y77.84 E.03682
G1 X97.859 Y77.84 E.01682
G1 X98.686 Y78.668 E.03682
G1 X98.151 Y78.668 E.01682
G1 X97.324 Y77.84 E.03682
G1 X96.789 Y77.84 E.01682
G1 X97.616 Y78.668 E.03682
G1 X97.082 Y78.668 E.01682
G1 X96.254 Y77.84 E.03682
G1 X95.719 Y77.84 E.01682
G1 X96.547 Y78.668 E.03682
G1 X96.012 Y78.668 E.01682
G1 X95.184 Y77.84 E.03682
G1 X94.649 Y77.84 E.01682
G1 X95.477 Y78.668 E.03682
G1 X94.942 Y78.668 E.01682
G1 X94.114 Y77.84 E.03682
G1 X93.579 Y77.84 E.01682
G1 X94.407 Y78.668 E.03682
G1 X93.872 Y78.668 E.01682
G1 X93.044 Y77.84 E.03682
G1 X92.509 Y77.84 E.01682
G1 X93.337 Y78.668 E.03682
G1 X92.802 Y78.668 E.01682
G1 X91.974 Y77.84 E.03682
G1 X91.44 Y77.84 E.01682
G1 X92.269 Y78.669 E.03688
G1 X92.137 Y78.681 E.00416
G1 X91.864 Y78.799 E.00937
G1 X90.905 Y77.84 E.04266
G1 X90.37 Y77.84 E.01682
G1 X91.598 Y79.068 E.05463
G1 X91.506 Y79.186 E.00469
G1 X91.452 Y79.457 E.00871
G1 X89.835 Y77.84 E.07194
G1 X89.3 Y77.84 E.01682
G1 X91.442 Y79.982 E.09529
G1 X91.442 Y80.517 E.01682
G1 X88.765 Y77.84 E.11908
G1 X88.23 Y77.84 E.01682
G1 X91.442 Y81.052 E.14287
G1 X91.442 Y81.587 E.01682
G1 X87.695 Y77.84 E.16667
G1 X87.16 Y77.84 E.01682
G1 X91.442 Y82.122 E.19046
G1 X91.442 Y82.657 E.01682
G1 X86.625 Y77.84 E.21425
G1 X86.09 Y77.84 E.01682
G1 X91.442 Y83.192 E.23804
G1 X91.442 Y83.727 E.01682
G1 X85.555 Y77.84 E.26184
G1 X85.021 Y77.84 E.01682
G1 X91.442 Y84.262 E.28563
G1 X91.442 Y84.796 E.01682
G1 X84.486 Y77.84 E.30942
G1 X83.951 Y77.84 E.01682
G1 X91.612 Y85.501 E.34076
M204 P1000
G1 E-2.24 F2700
;WIPE_START
G1 F7200
G1 X89.802 Y83.691 E-.912
;WIPE_END
G1 E-.048 F2700
G1 Z.4 F720
G1 X100.765 Y86.63 F9000
G1 Z.2 F720
G1 E3.2 F1500
M204 P800
G1 F1200
G1 X101.862 Y87.727 E.0488
M204 P1000
G1 E-2.24 F2700
;WIPE_START
G1 F7200
G1 X100.765 Y86.63 E-.55275
;WIPE_END
G1 E-.40725 F2700
G1 Z.4 F720
G1 X100.23 Y86.63 F9000
G1 Z.2 F720
G1 E3.2 F1500
M204 P800
G1 F1200
G1 X101.767 Y88.167 E.06836
G1 X101.866 Y88.338 E.00621
G1 X103.199 Y89.68 E.05948
G1 X103.251 Y89.965 E.00913
G1 X103.379 Y90.184 E.00796
G1 X103.594 Y90.375 E.00904
G1 X103.96 Y90.497 E.01214
G1 X104.097 Y90.497 E.00431
G1 X104.562 Y90.963 E.02072
G1 X104.028 Y90.963 E.01682
G1 X99.865 Y86.8 E.18517
G1 X99.33 Y86.8 E.01682
G1 X103.61 Y91.08 E.19037
G1 X103.379 Y91.276 E.00954
G1 X103.339 Y91.344 E.00247
G1 X98.795 Y86.8 E.20212
G1 X98.26 Y86.8 E.01682
G1 X103.205 Y91.745 E.21997
G1 X103.199 Y91.78 E.00111
G1 X102.953 Y92.028 E.01098
G1 X97.725 Y86.8 E.23252
G1 X97.19 Y86.8 E.01682
G1 X102.686 Y92.295 E.24444
G1 X102.419 Y92.563 E.0119
M73 P0 R99
G1 X96.655 Y86.8 E.25636
G1 X96.12 Y86.8 E.01682
G1 X102.152 Y92.831 E.26827
G1 X101.885 Y93.099 E.0119
M73 P1 R99
G1 X95.585 Y86.8 E.28019
G1 X95.05 Y86.8 E.01682
G1 X101.804 Y93.554 E.30041
M204 P1000
G1 E-2.24 F2700
;WIPE_START
G1 F7200
G1 X99.994 Y91.744 E-.912
;WIPE_END
G1 E-.048 F2700
G1 Z.4 F720
G1 X104.845 Y97.13 F9000
G1 Z.2 F720
G1 E3.2 F1500
M204 P800
G1 F1200
G1 X104.215 Y96.5 E.02802
G1 X104.027 Y96.5 E.00591
G1 X103.595 Y96.376 E.01414
G1 X103.381 Y96.186 E.00903
G1 X103.25 Y95.961 E.00817
G1 X103.199 Y95.68 E.00899
G1 X101.779 Y94.252 E.06333
G1 X101.639 Y93.989 E.00937
G1 X101.628 Y93.912 E.00242
G1 X94.515 Y86.8 E.31636
G1 X93.981 Y86.8 E.01682
G1 X104.141 Y96.96 E.45191
G1 X104.027 Y96.96 E.00356
G1 X103.7 Y97.054 E.01072
G1 X93.446 Y86.8 E.45608
G1 X92.911 Y86.8 E.01682
G1 X103.383 Y97.272 E.46579
G1 X103.25 Y97.499 E.00827
G1 X103.223 Y97.647 E.00474
G1 X92.376 Y86.8 E.48248
G1 X92.05 Y86.766 E.01031
G1 X91.837 Y86.669 E.00735
G1 X91.669 Y86.53 E.00687
G1 X91.527 Y86.322 E.00791
G1 X91.467 Y86.159 E.00547
G1 X91.442 Y85.866 E.00923
G1 X83.416 Y77.84 E.35701
G1 X82.881 Y77.84 E.01682
G1 X103.01 Y97.969 E.89532
G1 X102.743 Y98.237 E.0119
G1 X82.346 Y77.84 E.90721
G1 X81.811 Y77.84 E.01682
G1 X102.475 Y98.504 E.91911
G1 X102.208 Y98.771 E.0119
G1 X81.276 Y77.84 E.93101
G1 X80.741 Y77.84 E.01682
G1 X101.94 Y99.039 E.9429
G1 X101.836 Y99.19 E.00577
G1 X101.73 Y99.209 E.00339
G1 X101.629 Y99.263 E.0036
G1 X80.206 Y77.84 E.95287
G1 X79.671 Y77.84 E.01682
G1 X101.339 Y99.507 E.96373
G1 X101.245 Y99.654 E.00549
G1 X101.182 Y99.886 E.00753
G1 X79.136 Y77.84 E.98057
G1 X78.602 Y77.84 E.01682
G1 X101.168 Y100.406 E1.00373
G1 X101.168 Y100.941 E.01682
G1 X78.067 Y77.84 E1.02752
G1 X77.532 Y77.84 E.01682
G1 X101.168 Y101.476 E1.05131
G1 X101.168 Y102.011 E.01682
G1 X76.997 Y77.84 E1.0751
G1 X76.462 Y77.84 E.01682
G1 X100.782 Y102.16 E1.08173
G1 X100.247 Y102.16 E.01682
G1 X75.927 Y77.84 E1.08173
G1 X75.392 Y77.84 E.01682
G1 X99.712 Y102.16 E1.08173
G1 X99.177 Y102.16 E.01682
G1 X74.857 Y77.84 E1.08173
G1 X74.322 Y77.84 E.01682
G1 X98.642 Y102.16 E1.08173
G1 X98.108 Y102.16 E.01682
G1 X73.787 Y77.84 E1.08173
G1 X73.252 Y77.84 E.01682
G1 X97.573 Y102.16 E1.08173
G1 X97.038 Y102.16 E.01682
G1 X72.717 Y77.84 E1.08173
G1 X72.183 Y77.84 E.01682
G1 X96.503 Y102.16 E1.08173
G1 X95.968 Y102.16 E.01682
G1 X71.648 Y77.84 E1.08173
G1 X71.113 Y77.84 E.01682
G1 X95.433 Y102.16 E1.08173
G1 X94.898 Y102.16 E.01682
G1 X70.578 Y77.84 E1.08173
G1 X70.043 Y77.84 E.01682
G1 X94.363 Y102.16 E1.08173
G1 X93.828 Y102.16 E.01682
G1 X69.508 Y77.84 E1.08173
G1 X68.973 Y77.84 E.01682
G1 X93.293 Y102.16 E1.08173
G1 X92.758 Y102.16 E.01682
G1 X68.438 Y77.84 E1.08173
G1 X67.903 Y77.84 E.01682
G1 X92.223 Y102.16 E1.08173
G1 X91.688 Y102.16 E.01682
G1 X67.368 Y77.84 E1.08173
G1 X66.833 Y77.84 E.01682
G1 X91.154 Y102.16 E1.08173
G1 X90.619 Y102.16 E.01682
G1 X66.298 Y77.84 E1.08173
G1 X65.763 Y77.84 E.01682
M73 P1 R98
G1 X90.084 Y102.16 E1.08173
G1 X89.549 Y102.16 E.01682
M73 P2 R98
G1 X65.229 Y77.84 E1.08173
G1 X64.694 Y77.84 E.01682
G1 X89.014 Y102.16 E1.08173
G1 X88.479 Y102.16 E.01682
G1 X64.159 Y77.84 E1.08173
G1 X63.624 Y77.84 E.01682
G1 X87.944 Y102.16 E1.08173
G1 X87.409 Y102.16 E.01682
G1 X63.089 Y77.84 E1.08173
G1 X62.554 Y77.84 E.01682
G1 X86.874 Y102.16 E1.08173
G1 X86.339 Y102.16 E.01682
G1 X62.019 Y77.84 E1.08173
G1 X61.484 Y77.84 E.01682
G1 X85.804 Y102.16 E1.08173
G1 X85.269 Y102.16 E.01682
G1 X61.308 Y78.198 E1.06578
G1 X61.308 Y78.733 E.01682
G1 X84.735 Y102.16 E1.04199
G1 X84.2 Y102.16 E.01682
G1 X61.308 Y79.268 E1.0182
G1 X61.308 Y79.803 E.01682
G1 X83.665 Y102.16 E.99441
G1 X83.13 Y102.16 E.01682
G1 X61.308 Y80.338 E.97061
G1 X61.308 Y80.873 E.01682
G1 X82.595 Y102.16 E.94682
G1 X82.06 Y102.16 E.01682
G1 X61.308 Y81.408 E.92303
G1 X61.308 Y81.943 E.01682
G1 X81.525 Y102.16 E.89924
G1 X80.99 Y102.16 E.01682
G1 X61.308 Y82.478 E.87544
G1 X61.308 Y83.013 E.01682
G1 X80.455 Y102.16 E.85165
G1 X79.92 Y102.16 E.01682
G1 X61.308 Y83.548 E.82786
G1 X61.308 Y84.083 E.01682
G1 X79.385 Y102.16 E.80407
G1 X78.85 Y102.16 E.01682
G1 X61.308 Y84.617 E.78027
G1 X61.308 Y85.152 E.01682
G1 X78.316 Y102.16 E.75648
G1 X77.781 Y102.16 E.01682
G1 X61.308 Y85.687 E.73269
G1 X61.308 Y86.222 E.01682
G1 X77.246 Y102.16 E.7089
G1 X76.711 Y102.16 E.01682
G1 X61.308 Y86.757 E.6851
G1 X61.308 Y87.292 E.01682
G1 X76.176 Y102.16 E.66131
G1 X75.641 Y102.16 E.01682
G1 X61.308 Y87.827 E.63752
G1 X61.308 Y88.362 E.01682
G1 X75.106 Y102.16 E.61373
G1 X74.571 Y102.16 E.01682
G1 X61.308 Y88.897 E.58994
G1 X61.308 Y89.432 E.01682
G1 X74.036 Y102.16 E.56614
G1 X73.501 Y102.16 E.01682
G1 X61.308 Y89.967 E.54235
G1 X61.308 Y90.502 E.01682
G1 X72.966 Y102.16 E.51856
G1 X72.431 Y102.16 E.01682
G1 X61.308 Y91.036 E.49477
G1 X61.308 Y91.571 E.01682
G1 X71.897 Y102.16 E.47097
G1 X71.362 Y102.16 E.01682
G1 X61.308 Y92.106 E.44718
G1 X61.308 Y92.641 E.01682
G1 X70.827 Y102.16 E.42339
G1 X70.292 Y102.16 E.01682
G1 X61.308 Y93.176 E.3996
G1 X61.308 Y93.711 E.01682
G1 X69.757 Y102.16 E.3758
G1 X69.222 Y102.16 E.01682
G1 X61.308 Y94.246 E.35201
