; generated by PrusaSlicer 2.5.0+win64 on 2023-03-24 at 12:03:28 UTC


;
;

;
;
; 

; external perimeters extrusion width = 0.45mm
; perimeters extrusion width = 0.45mm
; infill extrusion width = 0.45mm
; solid infill extrusion width = 0.45mm
; top infill extrusion width = 0.40mm
; first layer extrusion width = 0.42mm

M73 P0 R95
M201 X2500 Y2500 Z400 E5000 ; sets maximum accelerations, mm/sec^2
M203 X180 Y180 Z12 E80 ; sets maximum feedrates, mm / sec
M204 P1250 R1250 T2500 ; sets acceleration (P, T) and retract acceleration (R), mm/sec^2
M205 X8.00 Y8.00 Z2.00 E10.00 ; sets the jerk limits, mm/sec
M205 S0 T0 ; sets the minimum extruding and travel feed rate, mm/sec
M107
;TYPE:Custom
M862.3 P "MINI" ; printer model check
G90 ; use absolute coordinates
M83 ; extruder relative mode
M104 S170 ; set extruder temp for bed leveling
M140 S85 ; set bed temp
M109 R170 ; wait for bed leveling temp
M190 S85 ; wait for bed temp
M204 T1250 ; set travel acceleration
G28 ; home all without mesh bed level
G29 ; mesh bed leveling 
M204 T2500 ; restore travel acceleration
M104 S230 ; set extruder temp
G92 E0
G1 Y-2 X179 F2400
G1 Z3 F720
M109 S230 ; wait for extruder temp

; intro line
G1 X170 F1000
G1 Z0.2 F720
G1 X110 E8 F900
G1 X40 E10 F700
G92 E0

M221 S95 ; set flow
G21 ; set units to millimeters
G90 ; use absolute coordinates
M83 ; use relative distances for extrusion
M900 K0.2 ; Filament gcode
M107
;LAYER_CHANGE
;Z:0.2
;HEIGHT:0.2
;BEFORE_LAYER_CHANGE
G92 E0.0
;0.2


M73 P0 R94
G1 E-3.2 F2700
G1 Z.2 F720
;AFTER_LAYER_CHANGE
;0.2
G1 Z.4
G1 X63.763 Y61.642 F9000
G1 Z.2 F720
G1 E3.2 F1500
M204 P800
;TYPE:Skirt/Brim
;WIDTH:0.42
G1 F1200
G1 X64.367 Y61.082 E.02582
G1 X65.818 Y60.103 E.05486
G1 X66.575 Y59.747 E.02624
G1 X67.648 Y59.391 E.03543
G1 X69.162 Y59.145 E.0481
G1 X110.346 Y59.125 E1.2913
G1 X111.699 Y59.25 E.04262
G1 X113.425 Y59.747 E.0563
G1 X114.585 Y60.332 E.04076
G1 X115.771 Y61.201 E.04607
G1 X116.955 Y62.479 E.05463
G1 X117.732 Y63.732 E.04623
G1 X118.359 Y65.398 E.05581
G1 X118.59 Y66.721 E.04211
G1 X118.625 Y112.596 E1.4384
G1 X118.5 Y113.95 E.04263
G1 X118.168 Y115.236 E.04164
G1 X117.647 Y116.432 E.04092
G1 X116.955 Y117.521 E.04045
G1 X116.236 Y118.359 E.03461
G1 X115.632 Y118.918 E.02581
G1 X114.742 Y119.571 E.03462
G1 X114.018 Y119.982 E.02608
G1 X112.986 Y120.418 E.03515
G1 X112.169 Y120.654 E.02667
G1 X110.346 Y120.875 E.05756
G1 X69.654 Y120.875 E1.27587
G1 X68.3 Y120.75 E.04263
G1 X67.014 Y120.418 E.04163
G1 X65.818 Y119.897 E.04092
G1 X64.729 Y119.205 E.04046
G1 X63.892 Y118.486 E.03459
G1 X63.332 Y117.882 E.02582
G1 X62.679 Y116.992 E.03463
G1 X62.268 Y116.268 E.02609
G1 X61.832 Y115.236 E.03515
G1 X61.595 Y114.418 E.02668
G1 X61.375 Y112.596 E.05755
G1 X61.375 Y67.404 E1.41696
G1 X61.5 Y66.05 E.04262
G1 X61.832 Y64.764 E.04165
G1 X62.353 Y63.568 E.04093
G1 X63.046 Y62.479 E.04046
G1 X63.724 Y61.687 E.03269
M204 P1000
; printing object Zip Tie Gopro Mount_Holey v1 id:0 copy 0
G1 E-2.24 F2700
;WIPE_START
G1 F7200
G1 X64.367 Y61.082 E-.31457
G1 X65.757 Y60.144 E-.59743
;WIPE_END
G1 E-.048 F2700
G1 Z.4 F720
G1 X64.537 Y112.462 F9000
G1 Z.2 F720
G1 E3.2 F1500
M204 P800
;TYPE:Perimeter
;WIDTH:0.419999
G1 F1200
G1 X64.537 Y67.527 E1.40891
G1 X64.607 Y66.653 E.02749
G1 X64.805 Y65.852 E.02587
G1 X65.12 Y65.105 E.02542
G1 X65.544 Y64.423 E.02519
G1 X66.065 Y63.815 E.0251
G1 X66.673 Y63.294 E.0251
G1 X67.355 Y62.87 E.02519
G1 X68.102 Y62.555 E.02542
G1 X68.903 Y62.357 E.02587
G1 X69.777 Y62.287 E.02749
G1 X110.226 Y62.287 E1.26823
G1 X111.097 Y62.357 E.0274
G1 X111.898 Y62.555 E.02587
G1 X112.645 Y62.87 E.02542
G1 X113.327 Y63.294 E.02519
G1 X113.935 Y63.815 E.0251
G1 X114.456 Y64.423 E.0251
G1 X114.88 Y65.105 E.02519
G1 X115.195 Y65.852 E.02543
G1 X115.393 Y66.653 E.02587
G1 X115.463 Y67.746 E.03435
G1 X115.463 Y112.473 E1.40236
G1 X115.393 Y113.347 E.02749
G1 X115.195 Y114.148 E.02587
G1 X114.88 Y114.895 E.02543
G1 X114.456 Y115.577 E.02519
G1 X113.935 Y116.185 E.0251
G1 X113.327 Y116.706 E.0251
G1 X112.645 Y117.13 E.02519
G1 X111.898 Y117.445 E.02543
G1 X111.097 Y117.643 E.02587
G1 X110.223 Y117.713 E.02749
G1 X69.777 Y117.713 E1.26814
G1 X68.903 Y117.643 E.02749
G1 X68.102 Y117.445 E.02587
G1 X67.355 Y117.13 E.02542
G1 X66.673 Y116.706 E.02519
G1 X66.065 Y116.185 E.0251
G1 X65.544 Y115.577 E.0251
G1 X65.12 Y114.895 E.02519
G1 X64.805 Y114.148 E.02542
G1 X64.607 Y113.347 E.02587
G1 X64.541 Y112.522 E.02594
M204 P1000
G1 X64.16 Y112.462 F9000
M204 P800
;TYPE:External perimeter
G1 F1200
G1 X64.16 Y67.512 E1.40938
G1 X64.234 Y66.593 E.02892
G1 X64.446 Y65.733 E.02776
G1 X64.784 Y64.931 E.02728
G1 X65.239 Y64.199 E.02702
G1 X65.798 Y63.548 E.02691
G1 X66.449 Y62.989 E.02691
G1 X67.181 Y62.534 E.02702
G1 X67.983 Y62.196 E.02728
G1 X68.843 Y61.984 E.02776
G1 X69.762 Y61.91 E.02892
G1 X110.241 Y61.91 E1.26918
G1 X111.157 Y61.984 E.02883
G1 X112.017 Y62.196 E.02776
G1 X112.819 Y62.534 E.02729
G1 X113.551 Y62.989 E.02702
G1 X114.202 Y63.548 E.02691
G1 X114.761 Y64.199 E.02691
G1 X115.216 Y64.931 E.02702
G1 X115.554 Y65.733 E.02728
G1 X115.766 Y66.593 E.02776
G1 X115.84 Y67.746 E.03625
G1 X115.84 Y112.488 E1.40284
G1 X115.766 Y113.407 E.02892
G1 X115.554 Y114.267 E.02776
G1 X115.216 Y115.069 E.02729
G1 X114.761 Y115.801 E.02702
G1 X114.202 Y116.452 E.02691
G1 X113.551 Y117.011 E.02691
G1 X112.819 Y117.466 E.02702
G1 X112.017 Y117.804 E.02729
G1 X111.157 Y118.016 E.02776
G1 X110.238 Y118.09 E.02892
G1 X69.762 Y118.09 E1.26909
G1 X68.843 Y118.016 E.02892
G1 X67.983 Y117.804 E.02776
G1 X67.181 Y117.466 E.02728
G1 X66.449 Y117.011 E.02702
G1 X65.798 Y116.452 E.02691
G1 X65.239 Y115.801 E.02691
G1 X64.784 Y115.069 E.02702
G1 X64.446 Y114.267 E.02728
G1 X64.234 Y113.407 E.02776
G1 X64.163 Y112.522 E.02784
M204 P1000
G1 X64.495 Y112.245 F9000
G1 E-2.24 F2700
;WIPE_START
G1 F7200
G1 X64.163 Y109.962 E-.912
;WIPE_END
G1 E-.048 F2700
G1 Z.4 F720
G1 X103.635 Y71.225 F9000
G1 Z.2 F720
G1 E3.2 F1500
M204 P800
;TYPE:Perimeter
G1 F1200
G1 X104.073 Y71.234 E.01372
G1 X104.591 Y71.345 E.0166
G1 X105.109 Y71.57 E.01772
G1 X105.548 Y71.873 E.01673
G1 X105.918 Y72.252 E.0166
G1 X106.21 Y72.694 E.0166
G1 X106.412 Y73.183 E.0166
G1 X106.519 Y73.702 E.0166
G1 X106.525 Y74.231 E.0166
G1 X106.431 Y74.752 E.0166
G1 X106.241 Y75.246 E.0166
G1 X105.96 Y75.695 E.0166
G1 X105.599 Y76.082 E.0166
G1 X105.172 Y76.395 E.0166
G1 X104.693 Y76.621 E.0166
G1 X104.18 Y76.752 E.0166
G1 X103.651 Y76.783 E.0166
G1 X103.131 Y76.717 E.01644
G1 X102.583 Y76.53 E.01816
G1 X102.144 Y76.277 E.01589
G1 X101.761 Y75.951 E.01577
G1 X101.434 Y75.55 E.01622
G1 X101.193 Y75.103 E.01591
G1 X101.03 Y74.599 E.0166
G1 X100.966 Y74.074 E.0166
G1 X101.002 Y73.546 E.0166
G1 X101.138 Y73.034 E.0166
G1 X101.368 Y72.557 E.0166
G1 X101.684 Y72.132 E.0166
G1 X102.075 Y71.775 E.0166
G1 X102.526 Y71.498 E.0166
G1 X103.022 Y71.312 E.0166
G1 X103.575 Y71.223 E.01758
M204 P1000
G1 X103.762 Y71.6 F9000
M204 P800
;TYPE:External perimeter
G1 F1200
G1 X104.093 Y71.616 E.01041
G1 X104.54 Y71.724 E.0144
G1 X104.985 Y71.932 E.0154
G1 X105.354 Y72.203 E.01436
G1 X105.665 Y72.539 E.01436
G1 X105.907 Y72.928 E.01436
G1 X106.071 Y73.355 E.01436
G1 X106.151 Y73.806 E.01436
G1 X106.145 Y74.264 E.01436
G1 X106.051 Y74.713 E.01436
G1 X105.875 Y75.135 E.01436
G1 X105.622 Y75.517 E.01436
G1 X105.301 Y75.844 E.01436
G1 X104.924 Y76.104 E.01436
G1 X104.505 Y76.288 E.01436
G1 X104.058 Y76.389 E.01436
G1 X103.502 Y76.39 E.01744
G1 X103.181 Y76.341 E.01016
G1 X102.756 Y76.195 E.01412
G1 X102.352 Y75.962 E.0146
G1 X102.006 Y75.662 E.01436
G1 X101.723 Y75.302 E.01436
G1 X101.513 Y74.895 E.01436
G1 X101.384 Y74.455 E.01436
G1 X101.341 Y73.999 E.01436
G1 X101.385 Y73.544 E.01436
G1 X101.514 Y73.104 E.01436
G1 X101.724 Y72.697 E.01436
G1 X102.007 Y72.337 E.01436
G1 X102.353 Y72.037 E.01436
G1 X102.75 Y71.808 E.01436
G1 X103.183 Y71.659 E.01436
G1 X103.702 Y71.597 E.01639
M204 P1000
G1 X103.917 Y71.306 F9000
G1 E-2.24 F2700
;WIPE_START
G1 F7200
G1 X104.093 Y71.616 E-.13968
G1 X104.54 Y71.724 E-.16367
G1 X104.985 Y71.932 E-.17493
G1 X105.354 Y72.203 E-.16319
G1 X105.665 Y72.539 E-.16317
G1 X105.824 Y72.795 E-.10736
;WIPE_END
G1 E-.048 F2700
G1 Z.4 F720
G1 X77.588 Y76.434 F9000
G1 Z.2 F720
G1 E3.2 F1500
M204 P800
;TYPE:Perimeter
G1 F1200
G1 X77.193 Y76.621 E.01371
G1 X76.68 Y76.752 E.0166
G1 X76.151 Y76.783 E.0166
G1 X75.626 Y76.714 E.0166
G1 X75.124 Y76.547 E.0166
G1 X74.649 Y76.281 E.01706
G1 X74.211 Y75.897 E.01826
G1 X73.889 Y75.477 E.0166
G1 X73.652 Y75.004 E.0166
G1 X73.509 Y74.494 E.0166
G1 X73.465 Y73.966 E.0166
G1 X73.522 Y73.44 E.0166
G1 X73.677 Y72.934 E.0166
G1 X73.926 Y72.466 E.0166
G1 X74.258 Y72.054 E.0166
G1 X74.662 Y71.712 E.0166
G1 X75.124 Y71.453 E.0166
G1 X75.613 Y71.288 E.01619
G1 X76.128 Y71.216 E.01631
G1 X76.68 Y71.248 E.01732
G1 X77.193 Y71.379 E.0166
G1 X77.672 Y71.605 E.0166
G1 X78.099 Y71.918 E.0166
G1 X78.462 Y72.309 E.01673
G1 X78.736 Y72.74 E.01604
G1 X78.93 Y73.236 E.01669
G1 X79.025 Y73.741 E.01612
G1 X79.025 Y74.253 E.01604
G1 X78.931 Y74.752 E.01593
G1 X78.741 Y75.246 E.0166
G1 X78.46 Y75.695 E.0166
G1 X78.099 Y76.082 E.0166
G1 X77.643 Y76.408 E.01759
M204 P1000
G1 X77.329 Y76.145 F9000
M204 P800
;TYPE:External perimeter
G1 F1200
G1 X77.005 Y76.288 E.01112
G1 X76.558 Y76.389 E.01436
G1 X76.1 Y76.404 E.01436
G1 X75.648 Y76.333 E.01436
G1 X75.218 Y76.177 E.01432
G1 X74.852 Y75.962 E.01332
G1 X74.506 Y75.662 E.01436
G1 X74.223 Y75.302 E.01436
G1 X74.013 Y74.895 E.01436
G1 X73.884 Y74.455 E.01436
G1 X73.841 Y73.999 E.01436
G1 X73.885 Y73.544 E.01436
G1 X74.014 Y73.104 E.01436
G1 X74.224 Y72.697 E.01436
G1 X74.507 Y72.337 E.01436
G1 X74.853 Y72.037 E.01436
G1 X75.25 Y71.808 E.01436
G1 X75.683 Y71.659 E.01436
G1 X76.136 Y71.594 E.01436
G1 X76.593 Y71.616 E.01436
G1 X77.038 Y71.724 E.01436
G1 X77.455 Y71.914 E.01436
G1 X77.828 Y72.18 E.01436
G1 X78.145 Y72.512 E.0144
G1 X78.407 Y72.928 E.0154
G1 X78.571 Y73.355 E.01436
G1 X78.651 Y73.851 E.01574
G1 X78.645 Y74.264 E.01295
G1 X78.551 Y74.713 E.01436
G1 X78.375 Y75.135 E.01436
G1 X78.122 Y75.517 E.01436
G1 X77.687 Y75.923 E.01867
G1 X77.384 Y76.121 E.01134
M204 P1000
G1 X77.321 Y76.5 F9000
G1 E-2.24 F2700
;WIPE_START
G1 F7200
G1 X77.005 Y76.288 E-.14769
G1 X76.558 Y76.389 E-.16317
G1 X76.1 Y76.404 E-.16315
G1 X75.648 Y76.333 E-.16316
G1 X75.218 Y76.177 E-.16266
G1 X74.947 Y76.018 E-.11217
;WIPE_END
G1 E-.048 F2700
G1 Z.4 F720
G1 X78.692 Y107.324 F9000
G1 Z.2 F720
G1 E3.2 F1500
M204 P800
;TYPE:Perimeter
G1 F1200
G1 X78.46 Y107.695 E.01373
G1 X78.099 Y108.082 E.0166
G1 X77.672 Y108.395 E.0166
G1 X77.193 Y108.621 E.0166
G1 X76.68 Y108.752 E.0166
G1 X76.151 Y108.783 E.0166
G1 X75.561 Y108.698 E.01871
G1 X75.063 Y108.519 E.0166
G1 X74.607 Y108.249 E.0166
G1 X74.211 Y107.897 E.0166
G1 X73.889 Y107.477 E.0166
G1 X73.652 Y107.004 E.0166
G1 X73.509 Y106.494 E.0166
G1 X73.465 Y105.966 E.0166
G1 X73.522 Y105.44 E.0166
G1 X73.677 Y104.934 E.0166
G1 X73.926 Y104.466 E.0166
G1 X74.258 Y104.054 E.0166
G1 X74.662 Y103.712 E.0166
G1 X75.124 Y103.453 E.0166
G1 X75.626 Y103.286 E.0166
G1 X76.151 Y103.217 E.0166
G1 X76.68 Y103.248 E.0166
G1 X77.169 Y103.37 E.01581
G1 X77.657 Y103.594 E.01685
G1 X78.067 Y103.888 E.01581
G1 X78.418 Y104.252 E.01585
G1 X78.71 Y104.694 E.0166
G1 X78.912 Y105.183 E.0166
G1 X79.019 Y105.702 E.0166
G1 X79.025 Y106.231 E.0166
G1 X78.931 Y106.752 E.0166
G1 X78.724 Y107.273 E.01757
M204 P1000
G1 X78.332 Y107.199 F9000
M204 P800
;TYPE:External perimeter
G1 F1200
G1 X78.122 Y107.517 E.01196
G1 X77.801 Y107.844 E.01436
G1 X77.424 Y108.104 E.01436
G1 X77.005 Y108.288 E.01436
G1 X76.558 Y108.389 E.01436
G1 X76.102 Y108.405 E.01432
G1 X75.681 Y108.341 E.01332
G1 X75.249 Y108.191 E.01436
G1 X74.852 Y107.962 E.01436
G1 X74.506 Y107.662 E.01436
G1 X74.223 Y107.302 E.01436
G1 X74.013 Y106.895 E.01436
G1 X73.884 Y106.455 E.01436
G1 X73.841 Y105.999 E.01436
G1 X73.885 Y105.544 E.01436
G1 X74.014 Y105.104 E.01436
G1 X74.224 Y104.697 E.01436
G1 X74.507 Y104.337 E.01436
G1 X74.853 Y104.037 E.01436
G1 X75.25 Y103.808 E.01436
G1 X75.683 Y103.659 E.01436
G1 X76.136 Y103.594 E.01436
G1 X76.593 Y103.616 E.01436
G1 X77.04 Y103.724 E.0144
G1 X77.469 Y103.921 E.0148
G1 X77.854 Y104.203 E.01497
G1 X78.165 Y104.539 E.01436
G1 X78.407 Y104.928 E.01436
G1 X78.571 Y105.355 E.01436
G1 X78.651 Y105.851 E.01574
G1 X78.645 Y106.264 E.01295
G1 X78.551 Y106.713 E.01436
G1 X78.366 Y107.149 E.01487
M204 P1000
G1 X78.532 Y107.524 F9000
G1 E-2.24 F2700
;WIPE_START
G1 F7200
G1 X78.122 Y107.517 E-.15722
G1 X77.801 Y107.844 E-.16317
G1 X77.424 Y108.104 E-.16315
G1 X77.005 Y108.288 E-.16316
G1 X76.558 Y108.389 E-.16317
G1 X76.271 Y108.399 E-.10213
;WIPE_END
G1 E-.048 F2700
G1 Z.4 F720
G1 X105.556 Y108.114 F9000
G1 Z.2 F720
G1 E3.2 F1500
M204 P800
;TYPE:Perimeter
G1 F1200
G1 X105.078 Y108.448 E.01827
G1 X104.591 Y108.655 E.0166
G1 X104.073 Y108.766 E.0166
G1 X103.548 Y108.778 E.01647
G1 X103.061 Y108.698 E.01548
G1 X102.563 Y108.519 E.0166
G1 X102.107 Y108.249 E.0166
G1 X101.711 Y107.897 E.0166
G1 X101.389 Y107.477 E.0166
G1 X101.152 Y107.004 E.0166
G1 X101.009 Y106.494 E.0166
G1 X100.964 Y105.988 E.01593
G1 X101.012 Y105.482 E.01592
G1 X101.152 Y104.992 E.016
G1 X101.379 Y104.537 E.01595
G1 X101.684 Y104.132 E.01589
G1 X102.075 Y103.775 E.0166
G1 X102.526 Y103.498 E.0166
G1 X103.022 Y103.312 E.0166
G1 X103.544 Y103.223 E.0166
G1 X104.073 Y103.234 E.0166
G1 X104.591 Y103.345 E.0166
G1 X105.109 Y103.57 E.01772
G1 X105.548 Y103.873 E.01673
M73 P1 R94
G1 X105.918 Y104.252 E.0166
G1 X106.21 Y104.694 E.0166
G1 X106.412 Y105.183 E.0166
G1 X106.528 Y105.805 E.01983
G1 X106.517 Y106.325 E.01631
G1 X106.4 Y106.855 E.01703
G1 X106.191 Y107.341 E.0166
G1 X105.893 Y107.779 E.0166
G1 X105.598 Y108.072 E.01303
M204 P1000
G1 X105.339 Y107.804 F9000
M204 P800
;TYPE:External perimeter
G1 F1200
G1 X104.924 Y108.104 E.01606
G1 X104.505 Y108.288 E.01436
G1 X104.058 Y108.389 E.01436
G1 X103.602 Y108.405 E.01432
G1 X103.181 Y108.341 E.01332
G1 X102.749 Y108.191 E.01436
G1 X102.352 Y107.962 E.01436
G1 X102.006 Y107.662 E.01436
G1 X101.723 Y107.302 E.01436
G1 X101.513 Y106.895 E.01436
G1 X101.384 Y106.455 E.01436
G1 X101.341 Y105.999 E.01436
G1 X101.385 Y105.544 E.01436
G1 X101.514 Y105.104 E.01436
G1 X101.724 Y104.697 E.01436
G1 X102.007 Y104.337 E.01436
G1 X102.353 Y104.037 E.01436
G1 X102.75 Y103.808 E.01436
G1 X103.314 Y103.639 E.01846
G1 X103.636 Y103.594 E.0102
G1 X104.093 Y103.616 E.01436
G1 X104.54 Y103.724 E.0144
G1 X104.985 Y103.932 E.0154
G1 X105.354 Y104.203 E.01436
G1 X105.665 Y104.539 E.01436
G1 X105.907 Y104.928 E.01436
G1 X106.071 Y105.355 E.01436
G1 X106.151 Y105.805 E.01432
G1 X106.145 Y106.264 E.0144
G1 X106.051 Y106.713 E.01436
G1 X105.875 Y107.135 E.01436
G1 X105.622 Y107.517 E.01436
G1 X105.381 Y107.761 E.01075
M204 P1000
G1 X105.416 Y108.197 F9000
G1 E-2.24 F2700
;WIPE_START
G1 F7200
G1 X104.924 Y108.104 E-.20361
G1 X104.505 Y108.288 E-.16316
G1 X104.058 Y108.389 E-.16317
G1 X103.602 Y108.405 E-.16265
G1 X103.181 Y108.341 E-.15138
G1 X103.001 Y108.278 E-.06804
;WIPE_END
G1 E-.048 F2700
G1 Z.4 F720
G1 X111.841 Y62.657 F9000
G1 Z.2 F720
G1 E3.2 F1500
M204 P800
;TYPE:Solid infill
;WIDTH:0.420946
G1 F1200
G1 X114.78 Y65.596 E.13063
G1 X114.926 Y65.942 E.0118
G1 X115.036 Y66.386 E.01439
G1 X111.364 Y62.714 E.16321
G1 X111.051 Y62.637 E.01012
G1 X110.726 Y62.611 E.01025
G1 X115.139 Y67.024 E.19615
G1 X115.18 Y67.6 E.01815
G1 X110.15 Y62.57 E.22359
G1 X109.616 Y62.57 E.0168
G1 X115.18 Y68.134 E.24736
G1 X115.18 Y68.669 E.0168
G1 X109.081 Y62.57 E.27112
G1 X108.546 Y62.57 E.0168
G1 X115.18 Y69.204 E.29489
G1 X115.18 Y69.738 E.0168
G1 X108.012 Y62.57 E.31865
G1 X107.477 Y62.57 E.0168
G1 X115.18 Y70.273 E.34242
G1 X115.18 Y70.808 E.0168
G1 X106.943 Y62.57 E.36618
G1 X106.408 Y62.57 E.0168
G1 X115.18 Y71.342 E.38995
G1 X115.18 Y71.877 E.0168
G1 X105.873 Y62.57 E.41371
G1 X105.339 Y62.57 E.0168
G1 X115.18 Y72.411 E.43748
G1 X115.18 Y72.946 E.0168
G1 X104.804 Y62.57 E.46124
G1 X104.27 Y62.57 E.0168
G1 X115.18 Y73.481 E.48501
G1 X115.18 Y74.015 E.0168
G1 X103.735 Y62.57 E.50877
G1 X103.2 Y62.57 E.0168
G1 X115.18 Y74.55 E.53254
G1 X115.18 Y75.084 E.0168
M73 P1 R93
